groups/alkanes/nonyl.svg

<svg height="256" viewBox="0 0 256 256" width="256" xmlns="http://www.w3.org/2000/svg"><path d="m0 0h256v256h-256z" fill="#fff"/><g fill="none" stroke-width="2"><path d="m236.3 120-22.6 13" stroke="#000"/><path d="m213.7 133-22.5-13.1" stroke="#000"/><path d="m191.2 119.9-22.6 13" stroke="#000"/><path d="m168.6 132.9-22.5-13" stroke="#000"/><path d="m146.1 119.9-22.6 13" stroke="#000"/><path d="m123.5 132.9-22.5-13" stroke="#000"/><path d="m101 119.9-22.6 13" stroke="#000"/><path d="m78.4 132.9-22.6-13.1" stroke="#000"/><path d="m55.8 119.8-17 9.8" stroke="#000"/><path d="m214.9 132.3-1.2.7-1.1-.7" stroke="#000" stroke-miterlimit="10"/><path d="m192.3 120.6-1.1-.7-1.1.7" stroke="#000" stroke-miterlimit="10"/><path d="m169.7 132.3-1.1.6-1.1-.6" stroke="#000" stroke-miterlimit="10"/><path d="m147.2 120.6-1.1-.7-1.2.7" stroke="#000" stroke-miterlimit="10"/><path d="m124.6 132.3-1.1.6-1.1-.6" stroke="#000" stroke-miterlimit="10"/><path d="m102.1 120.5-1.1-.6-1.2.6" stroke="#000" stroke-miterlimit="10"/><path d="m79.5 132.2-1.1.7-1.1-.7" stroke="#000" stroke-miterlimit="10"/><path d="m57 120.5-1.2-.7-.8.5" stroke="#000" stroke-miterlimit="10"/><path d="m229.796 108.697c-.846.487-.196 1.616.65 1.128.847-.488 1.497.641.651 1.128-.847.488-.196 1.617.65 1.129s1.496.641.65 1.128c-.846.488-.196 1.616.65 1.129.846-.488 1.497.641.65 1.128-.846.488-.196 1.616.651 1.129.846-.488 1.496.641.65 1.128-.847.488-.196 1.616.65 1.129.846-.488 1.496.64.65 1.128s-.196 1.616.65 1.129c.847-.488 1.497.64.651 1.128-.847.488-.197 1.616.65 1.128.846-.487 1.496.641.65 1.129-.846.487-.196 1.616.65 1.128.846-.487 1.497.641.65 1.129-.846.487-.196 1.616.65 1.128.847-.487 1.497.641.651 1.129-.847.487-.196 1.616.65 1.128s1.496.641.65 1.129" stroke="#7f7f7f"/></g><text font-family="sans-serif" font-size="15" x="12.8" y="140.7">H</text><text font-family="sans-serif" font-size="10" x="23.6" y="146.9">3</text><text font-family="sans-serif" font-size="15" x="28.6" y="140.7">C</text></svg>

<?xml version='1.0' encoding='iso-8859-1'?>
<svg version='1.1' baseProfile='full'
              xmlns='http://www.w3.org/2000/svg'
                      xmlns:rdkit='http://www.rdkit.org/xml'
                      xmlns:xlink='http://www.w3.org/1999/xlink'
                  xml:space='preserve'
width='256px' height='256px' viewBox='0 0 256 256'>
<!-- END OF HEADER -->
<rect style='opacity:1.0;fill:#FFFFFF;stroke:none' width='256.0' height='256.0' x='0.0' y='0.0'> </rect>
<path class='bond-0 atom-0 atom-1' d='M 236.3,120.0 L 213.7,133.0' style='fill:none;fill-rule:evenodd;stroke:#000000;stroke-width:2.0px;stroke-linecap:butt;stroke-linejoin:miter;stroke-opacity:1' />
<path class='bond-1 atom-1 atom-2' d='M 213.7,133.0 L 191.2,119.9' style='fill:none;fill-rule:evenodd;stroke:#000000;stroke-width:2.0px;stroke-linecap:butt;stroke-linejoin:miter;stroke-opacity:1' />
<path class='bond-2 atom-2 atom-3' d='M 191.2,119.9 L 168.6,132.9' style='fill:none;fill-rule:evenodd;stroke:#000000;stroke-width:2.0px;stroke-linecap:butt;stroke-linejoin:miter;stroke-opacity:1' />
<path class='bond-3 atom-3 atom-4' d='M 168.6,132.9 L 146.1,119.9' style='fill:none;fill-rule:evenodd;stroke:#000000;stroke-width:2.0px;stroke-linecap:butt;stroke-linejoin:miter;stroke-opacity:1' />
<path class='bond-4 atom-4 atom-5' d='M 146.1,119.9 L 123.5,132.9' style='fill:none;fill-rule:evenodd;stroke:#000000;stroke-width:2.0px;stroke-linecap:butt;stroke-linejoin:miter;stroke-opacity:1' />
<path class='bond-5 atom-5 atom-6' d='M 123.5,132.9 L 101.0,119.9' style='fill:none;fill-rule:evenodd;stroke:#000000;stroke-width:2.0px;stroke-linecap:butt;stroke-linejoin:miter;stroke-opacity:1' />
<path class='bond-6 atom-6 atom-7' d='M 101.0,119.9 L 78.4,132.9' style='fill:none;fill-rule:evenodd;stroke:#000000;stroke-width:2.0px;stroke-linecap:butt;stroke-linejoin:miter;stroke-opacity:1' />
<path class='bond-7 atom-7 atom-8' d='M 78.4,132.9 L 55.8,119.8' style='fill:none;fill-rule:evenodd;stroke:#000000;stroke-width:2.0px;stroke-linecap:butt;stroke-linejoin:miter;stroke-opacity:1' />
<path class='bond-8 atom-8 atom-9' d='M 55.8,119.8 L 38.8,129.6' style='fill:none;fill-rule:evenodd;stroke:#000000;stroke-width:2.0px;stroke-linecap:butt;stroke-linejoin:miter;stroke-opacity:1' />
<path d='M 214.9,132.3 L 213.7,133.0 L 212.6,132.3' style='fill:none;stroke:#000000;stroke-width:2.0px;stroke-linecap:butt;stroke-linejoin:miter;stroke-miterlimit:10;stroke-opacity:1;' />
<path d='M 192.3,120.6 L 191.2,119.9 L 190.1,120.6' style='fill:none;stroke:#000000;stroke-width:2.0px;stroke-linecap:butt;stroke-linejoin:miter;stroke-miterlimit:10;stroke-opacity:1;' />
<path d='M 169.7,132.3 L 168.6,132.9 L 167.5,132.3' style='fill:none;stroke:#000000;stroke-width:2.0px;stroke-linecap:butt;stroke-linejoin:miter;stroke-miterlimit:10;stroke-opacity:1;' />
<path d='M 147.2,120.6 L 146.1,119.9 L 144.9,120.6' style='fill:none;stroke:#000000;stroke-width:2.0px;stroke-linecap:butt;stroke-linejoin:miter;stroke-miterlimit:10;stroke-opacity:1;' />
<path d='M 124.6,132.3 L 123.5,132.9 L 122.4,132.3' style='fill:none;stroke:#000000;stroke-width:2.0px;stroke-linecap:butt;stroke-linejoin:miter;stroke-miterlimit:10;stroke-opacity:1;' />
<path d='M 102.1,120.5 L 101.0,119.9 L 99.8,120.5' style='fill:none;stroke:#000000;stroke-width:2.0px;stroke-linecap:butt;stroke-linejoin:miter;stroke-miterlimit:10;stroke-opacity:1;' />
<path d='M 79.5,132.2 L 78.4,132.9 L 77.3,132.2' style='fill:none;stroke:#000000;stroke-width:2.0px;stroke-linecap:butt;stroke-linejoin:miter;stroke-miterlimit:10;stroke-opacity:1;' />
<path d='M 57.0,120.5 L 55.8,119.8 L 55.0,120.3' style='fill:none;stroke:#000000;stroke-width:2.0px;stroke-linecap:butt;stroke-linejoin:miter;stroke-miterlimit:10;stroke-opacity:1;' />
<path class='atom-1' d='M229.796,108.697 C228.95,109.184 229.6,110.313 230.446,109.825 C231.293,109.337 231.943,110.466 231.097,110.953 C230.25,111.441 230.901,112.57 231.747,112.082 C232.593,111.594 233.243,112.723 232.397,113.21 C231.551,113.698 232.201,114.826 233.047,114.339 C233.893,113.851 234.544,114.98 233.697,115.467 C232.851,115.955 233.501,117.083 234.348,116.596 C235.194,116.108 235.844,117.237 234.998,117.724 C234.151,118.212 234.802,119.34 235.648,118.853 C236.494,118.365 237.144,119.493 236.298,119.981 C235.452,120.469 236.102,121.597 236.948,121.11 C237.795,120.622 238.445,121.75 237.599,122.238 C236.752,122.726 237.402,123.854 238.249,123.366 C239.095,122.879 239.745,124.007 238.899,124.495 C238.053,124.982 238.703,126.111 239.549,125.623 C240.395,125.136 241.046,126.264 240.199,126.752 C239.353,127.239 240.003,128.368 240.849,127.88 C241.696,127.393 242.346,128.521 241.5,129.009 C240.653,129.496 241.304,130.625 242.15,130.137 C242.996,129.649 243.646,130.778 242.8,131.266' style='fill:none;stroke:#7F7F7F;stroke-width:2.0px;stroke-linecap:butt;stroke-linejoin:miter;stroke-opacity:1' />
<text x='12.8' y='140.7' class='atom-9' style='font-size:15px;font-style:normal;font-weight:normal;fill-opacity:1;stroke:none;font-family:sans-serif;text-anchor:start;fill:#000000' >H</text>
<text x='23.6' y='146.9' class='atom-9' style='font-size:10px;font-style:normal;font-weight:normal;fill-opacity:1;stroke:none;font-family:sans-serif;text-anchor:start;fill:#000000' >3</text>
<text x='28.6' y='140.7' class='atom-9' style='font-size:15px;font-style:normal;font-weight:normal;fill-opacity:1;stroke:none;font-family:sans-serif;text-anchor:start;fill:#000000' >C</text>
</svg>
